src/pages/screens/Techs/images/backend/Spring.svg

<svg width="32" height="32" viewBox="0 0 32 32" fill="none" xmlns="http://www.w3.org/2000/svg">
<path d="M4.86791 4.48488C11.1904 -1.63999 21.2997 -1.47537 27.4245 4.88001C28.116 3.95801 28.7088 2.93726 29.1369 1.88351C31.1457 8.00838 32.364 13.1454 31.9029 17.1298C31.6724 20.4885 30.3553 23.7156 28.1819 26.2841C22.5182 33.0018 12.4417 33.8579 5.72404 28.1941L5.59554 28.0798L5.58866 28.0753C5.56766 28.0606 5.54691 28.0453 5.52641 28.0294C5.46516 27.9818 5.40954 27.9299 5.35941 27.8744L5.34141 27.8539L5.13141 27.6673C4.92641 27.4916 4.72154 27.316 4.53979 27.1173L4.47279 27.0415C-1.65221 20.719 -1.45459 10.6098 4.86779 4.48488H4.86791ZM7.23866 25.922C6.64591 25.461 5.78979 25.5268 5.32866 26.1195C4.92341 26.6408 4.92541 27.3656 5.33479 27.8464L5.34129 27.8539L5.59541 28.0798L5.62041 28.0968C6.19591 28.4753 6.97041 28.397 7.41204 27.862L7.43629 27.8319C7.89729 27.2391 7.79854 26.383 7.23879 25.9219L7.23866 25.922ZM28.9724 3.52988C27.3258 6.98751 23.2424 9.62188 19.719 10.4451C16.3932 11.2354 13.4953 10.5769 10.4329 11.7623C3.45191 14.4296 3.58366 22.7278 7.40341 24.6048L7.63391 24.7365C7.63391 24.7365 10.3932 24.1879 13.1217 23.4634L13.3554 23.4009C14.4452 23.1071 15.5173 22.7871 16.3932 22.4644C20.9374 20.785 25.9428 16.6359 27.5892 11.8281C26.733 16.8334 22.4193 21.674 18.1054 23.8804C15.8004 25.0658 14.0223 25.3291 10.2354 26.6464C9.77441 26.811 9.41216 26.9758 9.41216 26.9758L9.55066 26.957L9.64266 26.9451L9.73429 26.9336C10.5705 26.8299 11.322 26.7781 11.322 26.7781C16.6895 26.5146 25.1195 28.2929 29.0382 23.0571C33.0555 17.7225 30.8163 9.09501 28.9723 3.52988H28.9724Z" fill="#6DB33F"/>
</svg>

<svg width="32" height="32" fill="none" xmlns="http://www.w3.org/2000/svg"><path d="M4.868 4.485C11.19-1.64 21.3-1.475 27.424 4.88a13.557 13.557 0 0 0 1.713-2.996c2.009 6.124 3.227 11.261 2.766 15.246a15.912 15.912 0 0 1-3.721 9.154c-5.664 6.718-15.74 7.574-22.458 1.91l-.128-.114-.007-.005a1.298 1.298 0 0 1-.23-.2l-.018-.021-.21-.187a6.663 6.663 0 0 1-.591-.55l-.067-.076c-6.125-6.322-5.928-16.431.395-22.556zm2.37 21.437c-.592-.461-1.448-.395-1.91.197-.405.522-.403 1.247.007 1.727l.006.008.254.226.025.017c.576.378 1.35.3 1.792-.235l.024-.03a1.387 1.387 0 0 0-.197-1.91zM28.973 3.53c-1.646 3.458-5.73 6.092-9.253 6.915-3.326.79-6.224.132-9.286 1.317-6.981 2.668-6.85 10.966-3.03 12.843l.23.131s2.76-.548 5.489-1.273l.233-.062c1.09-.294 2.162-.614 3.038-.937 4.544-1.679 9.55-5.828 11.196-10.636-.856 5.005-5.17 9.846-9.484 12.052-2.305 1.186-4.083 1.45-7.87 2.766-.46.165-.823.33-.823.33l.139-.019.092-.012.091-.011c.836-.104 1.588-.156 1.588-.156 5.367-.263 13.797 1.515 17.716-3.72 4.018-5.335 1.778-13.963-.066-19.528z" fill="#6DB33F"/></svg>
